images/3234784.svg

<?xml version="1.0" encoding="UTF-8"?>
<svg xmlns="http://www.w3.org/2000/svg" xmlns:xlink="http://www.w3.org/1999/xlink" width="300pt" height="300pt" viewBox="0 0 300 300" version="1.1">
<defs>
<g>
<symbol overflow="visible" id="glyph0-0">
<path style="stroke:none;" d="M 0.640625 2.296875 L 0.640625 -9.171875 L 7.140625 -9.171875 L 7.140625 2.296875 Z M 1.375 1.578125 L 6.421875 1.578125 L 6.421875 -8.4375 L 1.375 -8.4375 Z M 1.375 1.578125 "/>
</symbol>
<symbol overflow="visible" id="glyph0-1">
<path style="stroke:none;" d="M 1.28125 -9.484375 L 3 -9.484375 L 7.203125 -1.546875 L 7.203125 -9.484375 L 8.453125 -9.484375 L 8.453125 0 L 6.71875 0 L 2.515625 -7.921875 L 2.515625 0 L 1.28125 0 Z M 1.28125 -9.484375 "/>
</symbol>
<symbol overflow="visible" id="glyph0-2">
<path style="stroke:none;" d="M 1.28125 -9.484375 L 2.5625 -9.484375 L 2.5625 -5.59375 L 7.21875 -5.59375 L 7.21875 -9.484375 L 8.5 -9.484375 L 8.5 0 L 7.21875 0 L 7.21875 -4.515625 L 2.5625 -4.515625 L 2.5625 0 L 1.28125 0 Z M 1.28125 -9.484375 "/>
</symbol>
<symbol overflow="visible" id="glyph0-3">
<path style="stroke:none;" d="M 8.375 -8.75 L 8.375 -7.390625 C 7.9375 -7.796875 7.472656 -8.097656 6.984375 -8.296875 C 6.503906 -8.492188 5.988281 -8.59375 5.4375 -8.59375 C 4.351562 -8.59375 3.519531 -8.257812 2.9375 -7.59375 C 2.363281 -6.9375 2.078125 -5.984375 2.078125 -4.734375 C 2.078125 -3.484375 2.363281 -2.523438 2.9375 -1.859375 C 3.519531 -1.203125 4.351562 -0.875 5.4375 -0.875 C 5.988281 -0.875 6.503906 -0.972656 6.984375 -1.171875 C 7.472656 -1.367188 7.9375 -1.664062 8.375 -2.0625 L 8.375 -0.734375 C 7.925781 -0.421875 7.453125 -0.1875 6.953125 -0.03125 C 6.453125 0.113281 5.921875 0.1875 5.359375 0.1875 C 3.921875 0.1875 2.789062 -0.25 1.96875 -1.125 C 1.144531 -2.007812 0.734375 -3.210938 0.734375 -4.734375 C 0.734375 -6.253906 1.144531 -7.453125 1.96875 -8.328125 C 2.789062 -9.210938 3.921875 -9.65625 5.359375 -9.65625 C 5.921875 -9.65625 6.453125 -9.578125 6.953125 -9.421875 C 7.460938 -9.273438 7.9375 -9.050781 8.375 -8.75 Z M 8.375 -8.75 "/>
</symbol>
<symbol overflow="visible" id="glyph0-4">
<path style="stroke:none;" d="M 1.21875 -9.875 L 2.390625 -9.875 L 2.390625 0 L 1.21875 0 Z M 1.21875 -9.875 "/>
</symbol>
</g>
</defs>
<g id="surface52745">
<rect x="0" y="0" width="300" height="300" style="fill:rgb(100%,100%,100%);fill-opacity:1;stroke:none;"/>
<path style="fill:none;stroke-width:1.2;stroke-linecap:butt;stroke-linejoin:miter;stroke:rgb(0%,0%,0%);stroke-opacity:1;stroke-miterlimit:10;" d="M 264.75 175.503906 L 244.523438 148.195312 "/>
<path style="fill:none;stroke-width:1.2;stroke-linecap:butt;stroke-linejoin:miter;stroke:rgb(0%,0%,0%);stroke-opacity:1;stroke-miterlimit:10;" d="M 244.523438 148.195312 L 210.757812 152.0625 "/>
<path style="fill:none;stroke-width:1.2;stroke-linecap:butt;stroke-linejoin:miter;stroke:rgb(0%,0%,0%);stroke-opacity:1;stroke-miterlimit:10;" d="M 240.238281 140.640625 L 213.226562 143.730469 "/>
<path style="fill:none;stroke-width:1.2;stroke-linecap:butt;stroke-linejoin:miter;stroke:rgb(0%,0%,0%);stroke-opacity:1;stroke-miterlimit:10;" d="M 258.058594 117.023438 L 244.523438 148.195312 "/>
<path style="fill:none;stroke-width:1.2;stroke-linecap:butt;stroke-linejoin:miter;stroke:rgb(0%,0%,0%);stroke-opacity:1;stroke-miterlimit:10;" d="M 210.757812 152.0625 L 190.53125 124.753906 "/>
<path style="fill:none;stroke-width:1.2;stroke-linecap:butt;stroke-linejoin:miter;stroke:rgb(0%,0%,0%);stroke-opacity:1;stroke-miterlimit:10;" d="M 190.53125 124.753906 L 204.066406 93.582031 "/>
<path style="fill:none;stroke-width:1.2;stroke-linecap:butt;stroke-linejoin:miter;stroke:rgb(0%,0%,0%);stroke-opacity:1;stroke-miterlimit:10;" d="M 199.21875 124.820312 L 210.046875 99.882812 "/>
<path style="fill:none;stroke-width:1.2;stroke-linecap:butt;stroke-linejoin:miter;stroke:rgb(0%,0%,0%);stroke-opacity:1;stroke-miterlimit:10;" d="M 190.53125 124.753906 L 156.765625 128.617188 "/>
<path style="fill:none;stroke-width:1.2;stroke-linecap:butt;stroke-linejoin:miter;stroke:rgb(0%,0%,0%);stroke-opacity:1;stroke-miterlimit:10;" d="M 204.066406 93.582031 L 237.828125 89.71875 "/>
<path style="fill:none;stroke-width:1.2;stroke-linecap:butt;stroke-linejoin:miter;stroke:rgb(0%,0%,0%);stroke-opacity:1;stroke-miterlimit:10;" d="M 237.828125 89.71875 L 258.058594 117.023438 "/>
<path style="fill:none;stroke-width:1.2;stroke-linecap:butt;stroke-linejoin:miter;stroke:rgb(0%,0%,0%);stroke-opacity:1;stroke-miterlimit:10;" d="M 233.425781 97.207031 L 249.609375 119.054688 "/>
<path style="fill:none;stroke-width:1.2;stroke-linecap:butt;stroke-linejoin:miter;stroke:rgb(0%,0%,0%);stroke-opacity:1;stroke-miterlimit:10;" d="M 156.765625 128.617188 L 146.652344 114.964844 "/>
<path style="fill:none;stroke-width:1.2;stroke-linecap:butt;stroke-linejoin:miter;stroke:rgb(0%,0%,100%);stroke-opacity:1;stroke-miterlimit:10;" d="M 146.652344 114.964844 L 136.539062 101.308594 "/>
<path style="fill:none;stroke-width:1.2;stroke-linecap:butt;stroke-linejoin:miter;stroke:rgb(0%,0%,100%);stroke-opacity:1;stroke-miterlimit:10;" d="M 136.539062 101.308594 L 119.65625 103.242188 "/>
<path style="fill:none;stroke-width:1.2;stroke-linecap:butt;stroke-linejoin:miter;stroke:rgb(0%,0%,0%);stroke-opacity:1;stroke-miterlimit:10;" d="M 119.65625 103.242188 L 102.777344 105.175781 "/>
<path style=" stroke:none;fill-rule:nonzero;fill:rgb(100%,100%,100%);fill-opacity:1;" d="M 126.539062 93.308594 L 146.539062 93.308594 L 146.539062 109.308594 L 126.539062 109.308594 Z M 126.539062 93.308594 "/>
<g style="fill:rgb(0%,0%,100%);fill-opacity:1;">
  <use xlink:href="#glyph0-1" x="126.539062" y="105.68457"/>
  <use xlink:href="#glyph0-2" x="136.508789" y="105.68457"/>
</g>
<path style="fill:none;stroke-width:1.2;stroke-linecap:butt;stroke-linejoin:miter;stroke:rgb(0%,0%,0%);stroke-opacity:1;stroke-miterlimit:10;" d="M 102.777344 105.175781 L 92.664062 91.519531 "/>
<path style="fill:none;stroke-width:1.2;stroke-linecap:butt;stroke-linejoin:miter;stroke:rgb(0%,0%,100%);stroke-opacity:1;stroke-miterlimit:10;" d="M 92.664062 91.519531 L 82.546875 77.867188 "/>
<path style="fill:none;stroke-width:1.2;stroke-linecap:butt;stroke-linejoin:miter;stroke:rgb(0%,0%,0%);stroke-opacity:1;stroke-miterlimit:10;" d="M 94.328125 107.203125 L 86.238281 96.28125 "/>
<path style="fill:none;stroke-width:1.2;stroke-linecap:butt;stroke-linejoin:miter;stroke:rgb(0%,0%,100%);stroke-opacity:1;stroke-miterlimit:10;" d="M 86.238281 96.28125 L 78.144531 85.355469 "/>
<path style="fill:none;stroke-width:1.2;stroke-linecap:butt;stroke-linejoin:miter;stroke:rgb(0%,0%,0%);stroke-opacity:1;stroke-miterlimit:10;" d="M 89.242188 136.347656 L 102.777344 105.175781 "/>
<path style="fill:none;stroke-width:1.2;stroke-linecap:butt;stroke-linejoin:miter;stroke:rgb(0%,0%,100%);stroke-opacity:1;stroke-miterlimit:10;" d="M 82.546875 77.867188 L 65.667969 79.796875 "/>
<path style="fill:none;stroke-width:1.2;stroke-linecap:butt;stroke-linejoin:miter;stroke:rgb(0%,0%,0%);stroke-opacity:1;stroke-miterlimit:10;" d="M 65.667969 79.796875 L 48.785156 81.730469 "/>
<path style=" stroke:none;fill-rule:nonzero;fill:rgb(100%,100%,100%);fill-opacity:1;" d="M 77.546875 69.867188 L 87.546875 69.867188 L 87.546875 85.867188 L 77.546875 85.867188 Z M 77.546875 69.867188 "/>
<g style="fill:rgb(0%,0%,100%);fill-opacity:1;">
  <use xlink:href="#glyph0-1" x="77.546875" y="82.243164"/>
</g>
<path style="fill:none;stroke-width:1.2;stroke-linecap:butt;stroke-linejoin:miter;stroke:rgb(0%,0%,0%);stroke-opacity:1;stroke-miterlimit:10;" d="M 48.785156 81.730469 L 42.015625 97.316406 "/>
<path style="fill:none;stroke-width:1.2;stroke-linecap:butt;stroke-linejoin:miter;stroke:rgb(0%,0%,100%);stroke-opacity:1;stroke-miterlimit:10;" d="M 42.015625 97.316406 L 35.25 112.902344 "/>
<path style="fill:none;stroke-width:1.2;stroke-linecap:butt;stroke-linejoin:miter;stroke:rgb(0%,0%,0%);stroke-opacity:1;stroke-miterlimit:10;" d="M 54.765625 88.03125 L 49.351562 100.5 "/>
<path style="fill:none;stroke-width:1.2;stroke-linecap:butt;stroke-linejoin:miter;stroke:rgb(0%,0%,100%);stroke-opacity:1;stroke-miterlimit:10;" d="M 49.351562 100.5 L 43.9375 112.96875 "/>
<path style="fill:none;stroke-width:1.2;stroke-linecap:butt;stroke-linejoin:miter;stroke:rgb(0%,0%,100%);stroke-opacity:1;stroke-miterlimit:10;" d="M 35.25 112.902344 L 45.363281 126.554688 "/>
<path style="fill:none;stroke-width:1.2;stroke-linecap:butt;stroke-linejoin:miter;stroke:rgb(0%,0%,0%);stroke-opacity:1;stroke-miterlimit:10;" d="M 45.363281 126.554688 L 55.476562 140.210938 "/>
<path style=" stroke:none;fill-rule:nonzero;fill:rgb(100%,100%,100%);fill-opacity:1;" d="M 30.25 104.902344 L 40.25 104.902344 L 40.25 120.902344 L 30.25 120.902344 Z M 30.25 104.902344 "/>
<g style="fill:rgb(0%,0%,100%);fill-opacity:1;">
  <use xlink:href="#glyph0-1" x="30.25" y="117.27832"/>
</g>
<path style="fill:none;stroke-width:1.2;stroke-linecap:butt;stroke-linejoin:miter;stroke:rgb(0%,0%,0%);stroke-opacity:1;stroke-miterlimit:10;" d="M 55.476562 140.210938 L 89.242188 136.347656 "/>
<path style="fill:none;stroke-width:1.2;stroke-linecap:butt;stroke-linejoin:miter;stroke:rgb(0%,0%,0%);stroke-opacity:1;stroke-miterlimit:10;" d="M 57.945312 131.878906 L 84.957031 128.789062 "/>
<path style="fill:none;stroke-width:1.2;stroke-linecap:butt;stroke-linejoin:miter;stroke:rgb(0%,0%,0%);stroke-opacity:1;stroke-miterlimit:10;" d="M 89.242188 136.347656 L 109.46875 163.652344 "/>
<path style="fill:none;stroke-width:1.2;stroke-linecap:butt;stroke-linejoin:miter;stroke:rgb(0%,0%,0%);stroke-opacity:1;stroke-miterlimit:10;" d="M 109.46875 163.652344 L 143.234375 159.789062 "/>
<path style="fill:none;stroke-width:1.2;stroke-linecap:butt;stroke-linejoin:miter;stroke:rgb(0%,0%,0%);stroke-opacity:1;stroke-miterlimit:10;" d="M 113.753906 171.210938 L 140.765625 168.121094 "/>
<path style="fill:none;stroke-width:1.2;stroke-linecap:butt;stroke-linejoin:miter;stroke:rgb(0%,0%,0%);stroke-opacity:1;stroke-miterlimit:10;" d="M 95.933594 194.824219 L 109.46875 163.652344 "/>
<path style="fill:none;stroke-width:1.2;stroke-linecap:butt;stroke-linejoin:miter;stroke:rgb(0%,0%,0%);stroke-opacity:1;stroke-miterlimit:10;" d="M 143.234375 159.789062 L 163.460938 187.097656 "/>
<path style="fill:none;stroke-width:1.2;stroke-linecap:butt;stroke-linejoin:miter;stroke:rgb(0%,0%,0%);stroke-opacity:1;stroke-miterlimit:10;" d="M 163.460938 187.097656 L 149.925781 218.269531 "/>
<path style="fill:none;stroke-width:1.2;stroke-linecap:butt;stroke-linejoin:miter;stroke:rgb(0%,0%,0%);stroke-opacity:1;stroke-miterlimit:10;" d="M 154.773438 187.03125 L 143.945312 211.96875 "/>
<path style="fill:none;stroke-width:1.2;stroke-linecap:butt;stroke-linejoin:miter;stroke:rgb(0%,0%,0%);stroke-opacity:1;stroke-miterlimit:10;" d="M 149.925781 218.269531 L 116.164062 222.132812 "/>
<path style="fill:none;stroke-width:1.2;stroke-linecap:butt;stroke-linejoin:miter;stroke:rgb(0%,0%,0%);stroke-opacity:1;stroke-miterlimit:10;" d="M 116.164062 222.132812 L 95.933594 194.824219 "/>
<path style="fill:none;stroke-width:1.2;stroke-linecap:butt;stroke-linejoin:miter;stroke:rgb(0%,0%,0%);stroke-opacity:1;stroke-miterlimit:10;" d="M 120.566406 214.644531 L 104.382812 192.796875 "/>
<path style="fill:none;stroke-width:1.2;stroke-linecap:butt;stroke-linejoin:miter;stroke:rgb(0%,0%,0%);stroke-opacity:1;stroke-miterlimit:10;" d="M 95.933594 194.824219 L 79.050781 196.757812 "/>
<path style="fill:none;stroke-width:1.2;stroke-linecap:butt;stroke-linejoin:miter;stroke:rgb(0%,80%,0%);stroke-opacity:1;stroke-miterlimit:10;" d="M 79.050781 196.757812 L 62.171875 198.691406 "/>
<path style=" stroke:none;fill-rule:nonzero;fill:rgb(100%,100%,100%);fill-opacity:1;" d="M 48.171875 190.691406 L 62.171875 190.691406 L 62.171875 206.691406 L 48.171875 206.691406 Z M 48.171875 190.691406 "/>
<g style="fill:rgb(0%,80%,0%);fill-opacity:1;">
  <use xlink:href="#glyph0-3" x="48.171875" y="203.067383"/>
  <use xlink:href="#glyph0-4" x="57.478516" y="203.067383"/>
</g>
</g>
</svg>

<svg xmlns="http://www.w3.org/2000/svg" xmlns:xlink="http://www.w3.org/1999/xlink" width="300pt" height="300pt" viewBox="0 0 300 300"><defs><symbol overflow="visible"><path d="M.64 2.297v-11.47h6.5v11.47zm.735-.72h5.047V-8.436H1.375zm0 0"/></symbol><symbol overflow="visible" id="a"><path d="M1.28-9.484H3l4.203 7.937v-7.937h1.25V0H6.72L2.515-7.922V0H1.28zm0 0"/></symbol><symbol overflow="visible" id="b"><path d="M1.28-9.484h1.282v3.89H7.22v-3.89H8.5V0H7.22v-4.516H2.562V0H1.28zm0 0"/></symbol><symbol overflow="visible" id="c"><path d="M8.375-8.75v1.36c-.438-.407-.902-.708-1.39-.907-.48-.195-.997-.297-1.548-.297-1.085 0-1.917.336-2.5 1-.574.657-.86 1.61-.86 2.86 0 1.25.286 2.21.86 2.875.583.657 1.415.985 2.5.985.55 0 1.067-.098 1.547-.297.49-.195.954-.492 1.39-.89v1.328c-.448.312-.92.546-1.42.703-.5.143-1.032.217-1.595.217-1.438 0-2.57-.437-3.39-1.312C1.144-2.008.733-3.21.733-4.735c0-1.52.41-2.718 1.235-3.593.82-.883 1.952-1.328 3.39-1.328.562 0 1.093.078 1.593.234.508.15.984.37 1.422.672zm0 0"/></symbol><symbol overflow="visible" id="d"><path d="M1.22-9.875h1.17V0H1.22zm0 0"/></symbol></defs><g><path fill="#fff" d="M0 0h300v300H0z"/><path d="M264.75 175.504l-20.227-27.31M244.523 148.195l-33.765 3.868M240.238 140.64l-27.01 3.09M258.06 117.023l-13.537 31.172M210.758 152.063l-20.227-27.31M190.53 124.754l13.536-31.172M199.22 124.82l10.827-24.937M190.53 124.754l-33.764 3.863M204.066 93.582l33.762-3.863M237.828 89.72l20.23 27.303M233.426 97.207l16.183 21.848M156.766 128.617l-10.114-13.652" stroke-width="1.2" stroke="#000" stroke-miterlimit="10" fill="none"/><path d="M146.652 114.965L136.54 101.31M136.54 101.31l-16.884 1.932" stroke-width="1.2" stroke="#00f" stroke-miterlimit="10" fill="none"/><path d="M119.656 103.242l-16.88 1.934" stroke-width="1.2" stroke="#000" stroke-miterlimit="10" fill="none"/><path d="M126.54 93.31h20v16h-20zm0 0" fill="#fff"/><g fill="#00f"><use xlink:href="#a" x="126.539" y="105.685"/><use xlink:href="#b" x="136.509" y="105.685"/></g><path d="M102.777 105.176L92.664 91.52" stroke-width="1.2" stroke="#000" stroke-miterlimit="10" fill="none"/><path d="M92.664 91.52L82.547 77.867" stroke-width="1.2" stroke="#00f" stroke-miterlimit="10" fill="none"/><path d="M94.328 107.203l-8.09-10.922" stroke-width="1.2" stroke="#000" stroke-miterlimit="10" fill="none"/><path d="M86.238 96.28l-8.093-10.925" stroke-width="1.2" stroke="#00f" stroke-miterlimit="10" fill="none"/><path d="M89.242 136.348l13.535-31.172" stroke-width="1.2" stroke="#000" stroke-miterlimit="10" fill="none"/><path d="M82.547 77.867l-16.88 1.93" stroke-width="1.2" stroke="#00f" stroke-miterlimit="10" fill="none"/><path d="M65.668 79.797L48.785 81.73" stroke-width="1.2" stroke="#000" stroke-miterlimit="10" fill="none"/><path d="M77.547 69.867h10v16h-10zm0 0" fill="#fff"/><use xlink:href="#a" x="77.547" y="82.243" fill="#00f"/><path d="M48.785 81.73l-6.77 15.586" stroke-width="1.2" stroke="#000" stroke-miterlimit="10" fill="none"/><path d="M42.016 97.316l-6.766 15.586" stroke-width="1.2" stroke="#00f" stroke-miterlimit="10" fill="none"/><path d="M54.766 88.03l-5.414 12.47" stroke-width="1.2" stroke="#000" stroke-miterlimit="10" fill="none"/><path d="M49.352 100.5l-5.414 12.47M35.25 112.902l10.113 13.653" stroke-width="1.2" stroke="#00f" stroke-miterlimit="10" fill="none"/><path d="M45.363 126.555l10.114 13.656" stroke-width="1.2" stroke="#000" stroke-miterlimit="10" fill="none"/><path d="M30.25 104.902h10v16h-10zm0 0" fill="#fff"/><use xlink:href="#a" x="30.25" y="117.278" fill="#00f"/><path d="M55.477 140.21l33.765-3.862M57.945 131.88l27.012-3.09M89.242 136.348l20.227 27.304M109.47 163.652l33.764-3.863M113.754 171.21l27.012-3.09M95.934 194.824l13.535-31.172M143.234 159.79l20.227 27.308M163.46 187.098l-13.534 31.172M154.773 187.03l-10.828 24.94M149.926 218.27l-33.762 3.863M116.164 222.133l-20.23-27.31M120.566 214.645l-16.183-21.848M95.934 194.824l-16.883 1.934" stroke-width="1.2" stroke="#000" stroke-miterlimit="10" fill="none"/><path d="M79.05 196.758l-16.878 1.933" stroke-width="1.2" stroke="#0c0" stroke-miterlimit="10" fill="none"/><path d="M48.172 190.69h14v16h-14zm0 0" fill="#fff"/><g fill="#0c0"><use xlink:href="#c" x="48.172" y="203.067"/><use xlink:href="#d" x="57.479" y="203.067"/></g></g></svg>
